svg/l/TF.svg

<svg width="32" height="24" viewBox="0 0 32 24" fill="none" xmlns="http://www.w3.org/2000/svg">
<mask id="mask0" mask-type="alpha" maskUnits="userSpaceOnUse" x="0" y="0" width="32" height="24">
<rect width="32" height="24" fill="white"/>
</mask>
<g mask="url(#mask0)">
<path fill-rule="evenodd" clip-rule="evenodd" d="M0 0V24H32V0H0Z" fill="#2E42A5"/>
<mask id="mask1" mask-type="alpha" maskUnits="userSpaceOnUse" x="0" y="0" width="32" height="24">
<path fill-rule="evenodd" clip-rule="evenodd" d="M0 0V24H32V0H0Z" fill="white"/>
</mask>
<g mask="url(#mask1)">
<path fill-rule="evenodd" clip-rule="evenodd" d="M18.7889 6.19995H22.7972H22.8288H26.8372L26.053 7.70397H23.6113V8.51184H25.4832L24.7207 9.91106H23.6113V12.7093L25.4385 9.83007L27.8032 13.9247H26.8372L26.4998 13.4764H24.3594L22.8544 16.2573L22.8548 16.4109L22.813 16.3337L22.7713 16.4109L22.7717 16.2573L21.2666 13.4764H19.1263L18.7889 13.9247H17.8228L20.1875 9.83007L22.0147 12.7093V7.70397H19.573L18.7889 6.19995ZM25.4856 11.5095L24.9604 12.3172H25.9547L25.4856 11.5095ZM20.1404 11.5095L20.6656 12.3172H19.6714L20.1404 11.5095ZM16.3137 10.6132L17.1447 10.0005L17.9757 10.6132L17.6825 9.58649L18.4893 8.93845L17.4771 8.9166L17.1447 7.90341L16.8123 8.9166L15.8 8.93845L16.6068 9.58649L16.3137 10.6132ZM28.4554 10.0005L27.6244 10.6132L27.9176 9.58649L27.1108 8.93845L28.123 8.9166L28.4554 7.90341L28.7878 8.9166L29.8 8.93845L28.9933 9.58649L29.2864 10.6132L28.4554 10.0005ZM25.0795 17.8033L25.9105 17.1906L26.7415 17.8033L26.4484 16.7766L27.2551 16.1285L26.2429 16.1067L25.9105 15.0935L25.5781 16.1067L24.5659 16.1285L25.3726 16.7766L25.0795 17.8033ZM19.6896 17.1906L18.8586 17.8033L19.1517 16.7766L18.345 16.1285L19.3572 16.1067L19.6896 15.0935L20.022 16.1067L21.0342 16.1285L20.2275 16.7766L20.5206 17.8033L19.6896 17.1906ZM21.969 20.2L22.8 19.5873L23.6311 20.2L23.3379 19.1733L24.1447 18.5252L23.1325 18.5034L22.8 17.4902L22.4676 18.5034L21.4554 18.5252L22.2622 19.1733L21.969 20.2Z" fill="#F7FCFF"/>
<rect x="-0.5" y="-0.5" width="13" height="11" fill="#2E42A5" stroke="white"/>
<mask id="mask2" mask-type="alpha" maskUnits="userSpaceOnUse" x="-1" y="-1" width="14" height="12">
<rect x="-0.5" y="-0.5" width="13" height="11" fill="white" stroke="white"/>
</mask>
<g mask="url(#mask2)">
<path fill-rule="evenodd" clip-rule="evenodd" d="M8 0H12V10H8V0Z" fill="#F50100"/>
<path fill-rule="evenodd" clip-rule="evenodd" d="M0 0H4V10H0V0Z" fill="#2E42A5"/>
<path fill-rule="evenodd" clip-rule="evenodd" d="M4 0H8V10H4V0Z" fill="#F7FCFF"/>
</g>
</g>
</g>
</svg>

<svg width="32" height="24" fill="none" xmlns="http://www.w3.org/2000/svg">
  <mask id="a" maskUnits="userSpaceOnUse" x="0" y="0" width="32" height="24">
    <path fill="#fff" d="M0 0h32v24H0z"/>
  </mask>
  <g mask="url(#a)">
    <path fill-rule="evenodd" clip-rule="evenodd" d="M0 0v24h32V0H0z" fill="#2E42A5"/>
    <mask id="b" maskUnits="userSpaceOnUse" x="0" y="0" width="32" height="24">
      <path fill-rule="evenodd" clip-rule="evenodd" d="M0 0v24h32V0H0z" fill="#fff"/>
    </mask>
    <g mask="url(#b)">
      <path fill-rule="evenodd" clip-rule="evenodd" d="M18.789 6.2h8.048l-.784 1.504h-2.442v.808h1.872l-.762 1.4h-1.11v2.797L25.44 9.83l2.364 4.095h-.966l-.337-.449h-2.14l-1.506 2.781v.154l-.041-.077-.042.077v-.154l-1.504-2.78h-2.14l-.338.448h-.966l2.364-4.095 1.828 2.88V7.703h-2.442L18.789 6.2zm6.697 5.31l-.526.807h.995l-.47-.808zm-5.346 0l.526.807h-.995l.47-.808zm-3.826-.897l.83-.612.832.612-.293-1.026.806-.648-1.012-.022-.332-1.014-.333 1.014-1.012.022.807.648-.293 1.026zm12.141-.612l-.83.612.293-1.026-.807-.648 1.012-.022.332-1.014.333 1.014 1.012.022-.807.648.293 1.026-.83-.612zm-3.375 7.802l.83-.612.831.612-.293-1.026.807-.648-1.012-.022-.332-1.013-.333 1.013-1.012.022.807.648-.294 1.026zm-5.39-.612l-.831.612.293-1.026-.807-.648 1.012-.022.333-1.013.332 1.013 1.012.022-.806.648.293 1.026-.831-.612zm2.279 3.009l.831-.613.831.613-.293-1.027.807-.648-1.012-.022-.333-1.013-.332 1.013-1.013.022.807.648-.293 1.027z" fill="#F7FCFF"/>
      <path fill="#2E42A5" stroke="#fff" d="M-.5-.5h13v11h-13z"/>
      <mask id="c" maskUnits="userSpaceOnUse" x="-1" y="-1" width="14" height="12">
        <path fill="#fff" stroke="#fff" d="M-.5-.5h13v11h-13z"/>
      </mask>
      <g mask="url(#c)" fill-rule="evenodd" clip-rule="evenodd">
        <path d="M8 0h4v10H8V0z" fill="#F50100"/>
        <path d="M0 0h4v10H0V0z" fill="#2E42A5"/>
        <path d="M4 0h4v10H4V0z" fill="#F7FCFF"/>
      </g>
    </g>
  </g>
</svg>
